X:1
T:Title
%%score { ( 1 3 ) | ( 2 4 ) }
L:1/8
M:6/8
K:Db
V:1 treble nm="Grand Piano"
V:3 treble 
V:2 bass 
V:4 bass 
V:1
 z3 z2[Q:1/4=84] [FA] | [FA][DF][EG] [FA][Gd][Ad] | [Bd][DAc][DGB] [DFA]2 [DFA] | %3
 [CGA][CE][DF] [EG][Ac][GB] | [FA]3- [FA]2 [FA] | BcB GEE |[M:5/8] [FA][GB][FA] F2 |[M:1/8] F | %8
[M:3/4] EA [Ac][=Ge] [DGB][DGc] | [CA]6 | [EGc][EGc] [EGc][EG]- [B,E-G-][A,EG] | %11
 [FB][FB] [FB] F2 F | =GF EE B_c | c-[Ec-] [Fc-] [Gc]3 | [EGc][EGc] [EGc][EG]- [B,E-G-][A,EG] | %15
 [FB][FB] [FB] [A,DF]2 [A,FA] |[M:13/16] [A,EG][CGe][DFd]cf3/2e |[M:5/8] [Fd]-[Fd]- [Fd]3 |] %18
V:2
 z3 z2 [D,D] | [D,D][D,A,][D,A,] [D,D][E,D][F,_C] | [G,B,]G,G, D,2 D, | %3
 A,,[A,,A,][A,,A,] [A,,A,][A,,A,][C,A,] | [D,A,]3- [D,A,]2 [D,_C] | %5
 [G,B,D][G,=A,E][F,_A,=D] [E,B,E][E,=G,_D][C,A,] |[M:5/8] [D,A,][D,D][D,D] [D,A,D]2 | %7
[M:1/8] [=D,A,_C] |[M:3/4] [E,A,C][E,CE] [E,A,][E,B,] E,E, | A,6 | A,A, A,A,, B,,C, | %11
 [D,A,][D,A,] [D,A,] [D,A,D]2 [D,B,D] | [E,B,D][E,A,D] [E,=G,D][E,G,D] [E,G,D][E,G,D] | %13
 A,[K:treble]C =D .E3 | A,A,[K:bass] A,A,, B,,C, | [D,A,][D,A,] [D,A,] D,2 D, | %16
[M:13/16] A,,A,,A,,[K:treble][A,E][A,B,A]3/2[A,CG] |[M:5/8][K:bass] [D,D]-[D,D]- [D,D]3 |] %18
V:3
 x6 | x6 | x6 | x6 | x6 | x6 |[M:5/8] x5 |[M:1/8] x |[M:3/4] x6 | x6 | z2 z C z2 | x6 | x6 | %13
 .C2 z2 z2 | z2 z C z2 | x6 |[M:13/16] x13/2 |[M:5/8] x5 |] %18
V:4
 x6 | x6 | x6 | x6 | x6 | x6 |[M:5/8] x5 |[M:1/8] x |[M:3/4] x6 | x6 | x6 | x6 | x6 | %13
 A,,6[K:treble] | x2[K:bass] x4 | x6 |[M:13/16] x3[K:treble] x7/2 |[M:5/8][K:bass] x5 |] %18

